X:163
T:Fairhaired Boy, The
R:jig
S:Mick Hand
Z:id:hn-jig-163
M:6/8
K:Ador
EAA AGA|Bdd dBd|ege dBG|BAB GED|
EAA AGA|Bdd dBd|ege dBG|1 BAG A2G:|2 BAG A3||
|:eaa eaa|egg ged|ege dBG|BAB GED|1 eaa eaa|egg ged|
ege dBG|BAG ABd:|2 EAA AGA|Bdd dBd|ege dBG|BAG A2G||
P:variations
|:E2A AGA|B2d dBd|e/f/ge dBG|~B3 GED|
E2A AGA|B2d dBd|e/f/ge dBG|1 BAG A2G:|2 BAG A3||
|:e2a aga|e2g ged|e/f/ge dBG|~B3 GED|1 e2a aga|e2g ged|
e/f/ge dBG|BAG AB/c/d:|2 E2A AGA|B2d dB/c/d|ege dBG|BAG c2B||

